Numix/16/status/indicator-keyboard-Si-1.svg

<?xml version="1.0" encoding="UTF-8" standalone="no"?>
<svg
   xmlns:dc="http://purl.org/dc/elements/1.1/"
   xmlns:cc="http://creativecommons.org/ns#"
   xmlns:rdf="http://www.w3.org/1999/02/22-rdf-syntax-ns#"
   xmlns:svg="http://www.w3.org/2000/svg"
   xmlns="http://www.w3.org/2000/svg"
   xmlns:sodipodi="http://sodipodi.sourceforge.net/DTD/sodipodi-0.dtd"
   xmlns:inkscape="http://www.inkscape.org/namespaces/inkscape"
   viewBox="0 0 16 16"
   id="svg2"
   version="1.1"
   inkscape:version="0.91 r13725"
   sodipodi:docname="indicator-keyboard-Si-1.svg">
  <metadata
     id="metadata14">
    <rdf:RDF>
      <cc:Work
         rdf:about="">
        <dc:format>image/svg+xml</dc:format>
        <dc:type
           rdf:resource="http://purl.org/dc/dcmitype/StillImage" />
      </cc:Work>
    </rdf:RDF>
  </metadata>
  <defs
     id="defs12" />
  <sodipodi:namedview
     pagecolor="#ffffff"
     bordercolor="#666666"
     borderopacity="1"
     objecttolerance="10"
     gridtolerance="10"
     guidetolerance="10"
     inkscape:pageopacity="0"
     inkscape:pageshadow="2"
     inkscape:window-width="459"
     inkscape:window-height="369"
     id="namedview10"
     showgrid="false"
     inkscape:zoom="14.75"
     inkscape:cx="8"
     inkscape:cy="8"
     inkscape:window-x="65"
     inkscape:window-y="24"
     inkscape:window-maximized="0"
     inkscape:current-layer="svg2" />
  <path
     style="fill:#ececec;fill-opacity:1"
     d="M 1.5996094 0 C 0.71320937 2.9605947e-16 0 0.71320937 0 1.5996094 L 0 14.400391 C 2.9605947e-16 15.286791 0.71320937 16 1.5996094 16 L 14.400391 16 C 15.286791 16 16 15.286791 16 14.400391 L 16 1.5996094 C 16 0.71320937 15.286791 0 14.400391 0 L 1.5996094 0 z M 9.1425781 4.5898438 C 9.2625781 4.5898438 9.3632656 4.6308438 9.4472656 4.7148438 C 9.5312656 4.7928438 9.5742188 4.9010625 9.5742188 5.0390625 C 9.5742188 5.1770625 9.5312656 5.2870937 9.4472656 5.3710938 C 9.3632656 5.4490937 9.2625781 5.4882813 9.1425781 5.4882812 C 9.0225781 5.4882812 8.9199375 5.4490937 8.8359375 5.3710938 C 8.7519375 5.2870937 8.7109375 5.1770625 8.7109375 5.0390625 C 8.7109375 4.9010625 8.7519375 4.7928438 8.8359375 4.7148438 C 8.9199375 4.6308438 9.0225781 4.5898437 9.1425781 4.5898438 z M 5.90625 4.7246094 C 6.07425 4.7246094 6.2383906 4.7357656 6.4003906 4.7597656 C 6.5623906 4.7837656 6.7135625 4.817375 6.8515625 4.859375 C 6.9955625 4.895375 7.1242813 4.936375 7.2382812 4.984375 C 7.3582812 5.032375 7.4571563 5.0846719 7.5351562 5.1386719 L 7.3183594 5.6503906 C 7.1443594 5.5303906 6.9316875 5.4352813 6.6796875 5.3632812 C 6.4336875 5.2912813 6.1669062 5.2558594 5.8789062 5.2558594 C 5.6809062 5.2558594 5.4980781 5.2763594 5.3300781 5.3183594 C 5.1680781 5.3543594 5.02625 5.4178125 4.90625 5.5078125 C 4.78625 5.5918125 4.6911406 5.6980781 4.6191406 5.8300781 C 4.5531406 5.9620781 4.5195312 6.1225938 4.5195312 6.3085938 C 4.5195312 6.5005937 4.5549531 6.6629219 4.6269531 6.7949219 C 4.6989531 6.9269219 4.7997812 7.0407187 4.9257812 7.1367188 C 5.0577812 7.2327187 5.2107656 7.3184844 5.3847656 7.3964844 C 5.5587656 7.4744844 5.7471719 7.556625 5.9511719 7.640625 C 6.1971719 7.742625 6.4285312 7.8433125 6.6445312 7.9453125 C 6.8665313 8.0473125 7.0587031 8.1686406 7.2207031 8.3066406 C 7.3827031 8.4446406 7.5114219 8.6125469 7.6074219 8.8105469 C 7.7034219 9.0085469 7.75 9.2510625 7.75 9.5390625 C 7.75 10.103063 7.55225 10.526594 7.15625 10.808594 C 6.76625 11.090594 6.2364531 11.230469 5.5644531 11.230469 C 5.3244531 11.230469 5.10425 11.215547 4.90625 11.185547 C 4.70825 11.155547 4.531 11.120125 4.375 11.078125 C 4.219 11.030125 4.0884688 10.981594 3.9804688 10.933594 C 3.8724688 10.885594 3.7885156 10.844594 3.7285156 10.808594 L 3.9257812 10.277344 C 3.9857813 10.313344 4.0659687 10.354344 4.1679688 10.402344 C 4.2699687 10.450344 4.3912969 10.498875 4.5292969 10.546875 C 4.6672969 10.588875 4.8220937 10.624297 4.9960938 10.654297 C 5.1700937 10.684297 5.3622656 10.699219 5.5722656 10.699219 C 6.0582656 10.699219 6.4370312 10.613453 6.7070312 10.439453 C 6.9770313 10.259453 7.1113281 9.970219 7.1113281 9.5742188 C 7.1113281 9.3462187 7.0665625 9.1578125 6.9765625 9.0078125 C 6.8925625 8.8518125 6.7787656 8.7230938 6.6347656 8.6210938 C 6.4907656 8.5130937 6.326625 8.4235625 6.140625 8.3515625 C 5.954625 8.2735625 5.7586875 8.1914219 5.5546875 8.1074219 C 5.2966875 8.0054219 5.0653281 7.9009687 4.8613281 7.7929688 C 4.6573281 7.6849688 4.4838437 7.5655937 4.3398438 7.4335938 C 4.1958437 7.2955937 4.0858125 7.1388438 4.0078125 6.9648438 C 3.9358125 6.7908437 3.8984375 6.5875156 3.8984375 6.3535156 C 3.8984375 5.8195156 4.0756875 5.4146719 4.4296875 5.1386719 C 4.7836875 4.8626719 5.27625 4.7246094 5.90625 4.7246094 z M 8.8535156 6.4433594 L 9.4394531 6.4433594 L 9.4394531 11.095703 L 8.8535156 11.095703 L 8.8535156 6.4433594 z M 12.003906 8.8417969 L 12.271484 8.8417969 L 12.271484 12.896484 L 11.892578 12.896484 L 11.892578 9.421875 C 11.849678 9.468675 11.792856 9.5157063 11.722656 9.5664062 C 11.656356 9.6171062 11.579941 9.66805 11.494141 9.71875 C 11.408341 9.76555 11.318209 9.812575 11.224609 9.859375 C 11.131009 9.902275 11.036959 9.9375437 10.943359 9.9648438 L 10.832031 9.671875 C 11.066031 9.5899751 11.275684 9.4880812 11.458984 9.3632812 C 11.642284 9.2345813 11.824506 9.0601969 12.003906 8.8417969 z "
     id="path4" />
</svg>

<svg xmlns="http://www.w3.org/2000/svg" viewBox="0 0 16 16">
 <path d="m 1.6 0 c -0.886 0 -1.6 0.713 -1.6 1.6 l 0 12.801 c 0 0.886 0.713 1.6 1.6 1.6 l 12.801 0 c 0.886 0 1.6 -0.713 1.6 -1.6 l 0 -12.801 c 0 -0.886 -0.713 -1.6 -1.6 -1.6 l -12.801 0 z m 7.543 4.59 c 0.12 0 0.221 0.041 0.305 0.125 c 0.084 0.078 0.127 0.186 0.127 0.324 c 0 0.138 -0.043 0.248 -0.127 0.332 c -0.084 0.078 -0.185 0.117 -0.305 0.117 c -0.12 0 -0.223 -0.039 -0.307 -0.117 c -0.084 -0.084 -0.125 -0.194 -0.125 -0.332 c 0 -0.138 0.041 -0.246 0.125 -0.324 c 0.084 -0.084 0.187 -0.125 0.307 -0.125 z m -3.236 0.135 c 0.168 0 0.332 0.011 0.494 0.035 c 0.162 0.024 0.313 0.058 0.451 0.1 c 0.144 0.036 0.273 0.077 0.387 0.125 c 0.12 0.048 0.219 0.1 0.297 0.154 l -0.217 0.512 c -0.174 -0.12 -0.387 -0.215 -0.639 -0.287 c -0.246 -0.072 -0.513 -0.107 -0.801 -0.107 c -0.198 0 -0.381 0.02 -0.549 0.063 c -0.162 0.036 -0.304 0.099 -0.424 0.189 c -0.12 0.084 -0.215 0.19 -0.287 0.322 c -0.066 0.132 -0.1 0.293 -0.1 0.479 c 0 0.192 0.035 0.354 0.107 0.486 c 0.072 0.132 0.173 0.246 0.299 0.342 c 0.132 0.096 0.285 0.182 0.459 0.26 c 0.174 0.078 0.362 0.16 0.566 0.244 c 0.246 0.102 0.477 0.203 0.693 0.305 c 0.222 0.102 0.414 0.223 0.576 0.361 c 0.162 0.138 0.291 0.306 0.387 0.504 c 0.096 0.198 0.143 0.441 0.143 0.729 c 0 0.564 -0.198 0.988 -0.594 1.27 c -0.39 0.282 -0.92 0.422 -1.592 0.422 c -0.24 0 -0.46 -0.015 -0.658 -0.045 c -0.198 -0.03 -0.375 -0.065 -0.531 -0.107 c -0.156 -0.048 -0.287 -0.097 -0.395 -0.145 c -0.108 -0.048 -0.192 -0.089 -0.252 -0.125 l 0.197 -0.531 c 0.06 0.036 0.14 0.077 0.242 0.125 c 0.102 0.048 0.223 0.097 0.361 0.145 c 0.138 0.042 0.293 0.077 0.467 0.107 c 0.174 0.03 0.366 0.045 0.576 0.045 c 0.486 0 0.865 -0.086 1.135 -0.26 c 0.27 -0.18 0.404 -0.469 0.404 -0.865 c 0 -0.228 -0.045 -0.416 -0.135 -0.566 c -0.084 -0.156 -0.198 -0.285 -0.342 -0.387 c -0.144 -0.108 -0.308 -0.198 -0.494 -0.27 c -0.186 -0.078 -0.382 -0.16 -0.586 -0.244 c -0.258 -0.102 -0.489 -0.206 -0.693 -0.314 c -0.204 -0.108 -0.377 -0.227 -0.521 -0.359 c -0.144 -0.138 -0.254 -0.295 -0.332 -0.469 c -0.072 -0.174 -0.109 -0.377 -0.109 -0.611 c 0 -0.534 0.177 -0.939 0.531 -1.215 c 0.354 -0.276 0.847 -0.414 1.477 -0.414 z m 2.947 1.719 l 0.586 0 l 0 4.652 l -0.586 0 l 0 -4.652 z m 3.15 2.398 l 0.268 0 l 0 4.055 l -0.379 0 l 0 -3.475 c -0.043 0.047 -0.1 0.094 -0.17 0.145 c -0.066 0.051 -0.143 0.102 -0.229 0.152 c -0.086 0.047 -0.176 0.094 -0.27 0.141 c -0.094 0.043 -0.188 0.078 -0.281 0.105 l -0.111 -0.293 c 0.234 -0.082 0.444 -0.184 0.627 -0.309 c 0.183 -0.129 0.366 -0.303 0.545 -0.521 z" style="fill:#ececec;fill-opacity:1"/>
</svg>
